X:120
T:Davenport March
C:Norman Blake
N:From "Full Moon on the Farm" Transcribed by Mark Dixon Transcribed by Kim Davis and Mike Stangeland
R:bluegrass
L:1/8
Q:1/4=230
M:4/4
K:C
z4 "Introduction"[DG,]B [gB][gB] | ge dg ed _Bd | AG z2 GA _Bd | _BA GD EG =BG | 
A^F G4 [g2B2G2] | {d}"G"eg gg gg gg | ge dB AG ED | {d}eg gg gg gg | "D"ed dB d3D | 
{d}"G"eg gb g2 ga | ge dB AG E^F | GB AG E^F GA | BG A^F G2 [g2B2G2] | {d}eg g2 g2 gg | 
ge dB AG G2 | {d}eg gg gg gg | ed [d2^F2D2] [d4F4D4] | gb ge g_b ge | d{_B}=B GA GE ^FG | 
BA GE ^FG zA | BG A^F G2 [g2B2G2] | dB GA _BA GA | d_B =BA GE DG | BA GE ^FG AB | 
GA ^FG [g4B4G4] | dB GA _BA GA | d_B =BA GE DG | BA GE ^FG zA | BG ^FA G2 [g2B2G2] | 
d{_B}=B BA GE ^FG | BA GE ^FG ED | ^FG DE FG DF | GA ^FG [g4B4G4] | d2 {_B}=BA GE D2 | 
GB AG ED E^F | GD EG D^F GA | BG A^F G2 [g2B2G2] | 


